src/assets/img/pay2.svg

<svg width="24" height="24" viewBox="0 0 24 24" fill="none" xmlns="http://www.w3.org/2000/svg">
<g id="logos:paypal">
<g id="Group 1000004949">
<path id="Vector" d="M10.3532 7.29485C10.4512 7.2474 10.5584 7.22281 10.6669 7.22287H15.2175C15.7563 7.22287 16.2589 7.25855 16.7182 7.33374C16.8467 7.35459 16.9746 7.37948 17.1016 7.40837C17.2816 7.44878 17.4596 7.49823 17.6348 7.55656C17.8606 7.63327 18.0708 7.72261 18.2641 7.82722C18.4919 6.3488 18.2625 5.3434 17.4767 4.43265C16.6113 3.4299 15.0485 3 13.0485 3H7.24359C6.83489 3 6.48719 3.30268 6.42314 3.71307L4.00627 19.3053C3.95823 19.6133 4.19229 19.8914 4.49815 19.8914H8.08211L9.94926 7.84667C9.96762 7.72828 10.014 7.6162 10.0843 7.52008C10.1547 7.42395 10.247 7.34666 10.3532 7.29485Z" fill="#27346A"/>
<path id="Vector_2" d="M18.2105 8.17295C17.4453 12.1708 14.826 13.5536 11.4807 13.5536H9.77731C9.36867 13.5536 9.02352 13.8563 8.96002 14.2668L7.84041 21.4868C7.79857 21.7559 8.00314 21.9998 8.27077 21.9998H11.2915C11.4646 21.9997 11.6319 21.9369 11.7635 21.8225C11.895 21.7082 11.9822 21.5498 12.0092 21.376L12.0386 21.2194L12.608 17.5488L12.6447 17.346C12.6717 17.1721 12.7588 17.0138 12.8904 16.8994C13.0219 16.7851 13.1892 16.7222 13.3623 16.7222H13.8144C16.7406 16.7222 19.0319 15.5129 19.7015 12.0153C19.981 10.5537 19.8364 9.33335 19.097 8.4762C18.8728 8.21658 18.5943 8.00217 18.2699 7.82715C18.2523 7.94016 18.2332 8.0547 18.2105 8.17295Z" fill="#2790C3"/>
<path id="Vector_3" d="M17.4767 4.43265C16.6118 3.4299 15.0485 3 13.0485 3H7.24409C7.04621 3.00001 6.85483 3.07182 6.70434 3.20253C6.55386 3.33324 6.45415 3.51427 6.42314 3.71307L4.00627 19.3059C3.95823 19.6134 4.19228 19.8918 4.49864 19.8918H8.08211L8.98207 14.085L8.95414 14.2669C9.01826 13.8564 9.36335 13.5537 9.77199 13.5537H11.4748C14.8201 13.5537 17.4395 12.1715 18.2046 8.17303C18.2274 8.05477 18.247 7.93967 18.264 7.82723C18.1675 7.7752 18.1675 7.7752 18.264 7.82723C18.4919 6.34937 18.2625 5.3434 17.4767 4.43265Z" fill="#27346A"/>
<path id="Vector_4" d="M17.4627 7.50327C17.3434 7.46783 17.223 7.43646 17.1016 7.4092C16.9745 7.38077 16.8467 7.35606 16.7182 7.33507C16.2585 7.25937 15.7562 7.22363 15.2169 7.22363H10.6668C10.5582 7.22338 10.451 7.24819 10.3532 7.29618C10.2468 7.34783 10.1545 7.42508 10.0841 7.52123C10.0136 7.61738 9.96734 7.72954 9.94915 7.848L8.98203 14.0858L8.9541 14.2677C9.01772 13.8572 9.36281 13.5545 9.77152 13.5545H11.4749C14.8201 13.5545 17.4394 12.1723 18.2046 8.17385C18.2274 8.05559 18.2465 7.941 18.2641 7.82805C18.0703 7.724 17.8606 7.63409 17.6347 7.55788C17.5777 7.53866 17.5204 7.52046 17.4628 7.50327" fill="#1F264F"/>
</g>
</g>
</svg>

<svg width="24" height="24" fill="none" xmlns="http://www.w3.org/2000/svg"><path d="M10.353 7.295a.719.719 0 0 1 .314-.072h4.55a9.34 9.34 0 0 1 1.501.11 6.22 6.22 0 0 1 .917.224c.226.076.436.166.63.27.227-1.478-.003-2.484-.788-3.394C16.61 3.43 15.049 3 13.049 3H7.244a.836.836 0 0 0-.82.713L4.005 19.305a.504.504 0 0 0 .492.586h3.584L9.95 7.847a.747.747 0 0 1 .404-.552Z" fill="#27346A"/><path d="M18.21 8.173c-.765 3.998-3.384 5.38-6.73 5.38H9.778a.832.832 0 0 0-.817.714l-1.12 7.22a.441.441 0 0 0 .43.513h3.021a.72.72 0 0 0 .473-.177.743.743 0 0 0 .245-.447l.03-.157.569-3.67.037-.203a.742.742 0 0 1 .245-.447.72.72 0 0 1 .472-.177h.452c2.927 0 5.218-1.21 5.887-4.707.28-1.461.135-2.682-.604-3.539a2.892 2.892 0 0 0-.827-.649 9.913 9.913 0 0 1-.06.346Z" fill="#2790C3"/><path d="M17.477 4.433C16.612 3.43 15.049 3 13.049 3H7.244a.823.823 0 0 0-.54.203.85.85 0 0 0-.28.51L4.005 19.306a.504.504 0 0 0 .493.586h3.583l.9-5.807-.028.182a.833.833 0 0 1 .818-.713h1.703c3.345 0 5.964-1.383 6.73-5.381.022-.118.042-.233.059-.346-.096-.052-.096-.052 0 0 .228-1.478-.002-2.484-.787-3.394Z" fill="#27346A"/><path d="M17.463 7.503a5.497 5.497 0 0 0-.745-.168 9.285 9.285 0 0 0-1.501-.111h-4.55a.727.727 0 0 0-.718.624l-.967 6.238-.028.182a.832.832 0 0 1 .818-.713h1.703c3.345 0 5.964-1.383 6.73-5.381.022-.118.042-.233.06-.346a4.094 4.094 0 0 0-.802-.325" fill="#1F264F"/></svg>
